img/logo.svg

<svg width="122" height="25" viewBox="0 0 122 25" fill="none" xmlns="http://www.w3.org/2000/svg">
<path d="M1.15564 23.9401C0.293607 23.9401 -0.233194 23.1261 0.102043 22.408L3.02339 14.9391C3.40652 13.9816 4.69958 13.9816 5.08271 14.8912L8.67453 23.2219C8.8182 23.557 8.53086 23.9401 8.14773 23.9401H1.20354" fill="white"/>
<path d="M13.512 23.5092L6.80731 8.66724C6.51996 8.04483 6.51996 7.32667 6.80731 6.70426L7.382 5.50733C7.66934 4.9328 8.24404 4.59766 8.91451 4.59766C9.58498 4.59766 10.2076 4.98068 10.447 5.55521L18.3011 22.9347C18.4927 23.4135 18.1096 23.9401 17.5828 23.9401H14.2783C13.8952 23.9401 13.6078 23.7486 13.512 23.5092Z" fill="white"/>
<path d="M23.186 23.4614L16.2897 8.9545C16.0024 8.3321 16.0024 7.56606 16.2897 6.94365L17.0081 5.50733C17.2954 4.9328 17.8701 4.59766 18.5406 4.59766C19.2111 4.59766 19.8337 4.98068 20.0731 5.50733L27.9751 22.839C28.2146 23.3656 27.7836 23.9401 27.161 23.9401H24.0481C23.6171 23.9401 23.3297 23.7486 23.186 23.4614Z" fill="white"/>
<path d="M43.2046 19.7738C42.4384 20.5398 41.289 20.875 39.8523 20.875C38.3676 20.875 37.2661 20.6356 36.452 20.1568C35.6378 19.678 35.2547 19.0556 35.2547 18.3375V17.763C35.2547 16.949 35.59 15.9436 36.3083 15.4648C36.9788 15.0339 37.9845 14.7946 39.3255 14.7946H44.4019H49.0952V11.7304C49.0952 9.3844 48.329 7.9002 46.7964 6.60751C45.2639 5.31482 42.9652 4.64453 39.9001 4.64453C37.2183 4.64453 34.7279 5.21906 32.3813 6.416C31.7108 6.75114 31.615 7.18204 31.9502 7.80444L32.5728 8.76199C32.9081 9.33652 33.4349 9.48015 34.1532 9.14501C36.021 8.28322 37.7451 7.85232 39.3733 7.85232C41.0016 7.85232 42.2468 8.18746 43.1088 8.85775C43.9709 9.52803 44.4019 10.2462 44.4019 11.7783V11.9219H38.9902C36.3562 11.9219 34.2969 12.4007 32.8602 13.4061C31.4234 14.4115 30.7051 16.1351 30.7051 17.763V17.9066C30.7051 19.5823 31.5192 21.258 33.1475 22.4071C34.7758 23.5082 37.0267 24.0828 39.9001 24.0828C42.8694 24.0828 45.1682 23.4604 46.7486 22.1677C47.85 21.258 48.6642 19.7259 48.9515 18.1938C48.9994 17.8587 48.76 17.5236 48.3769 17.5236H44.7371C44.4977 17.5236 44.2582 17.6672 44.1624 17.9066C43.9709 18.5769 43.7793 19.1993 43.2046 19.7738Z" fill="white"/>
<path d="M69.6876 18.0981C69.1129 17.0927 68.0593 16.0873 66.4789 15.0819L65.138 13.9328L67.6762 12.2092C68.8256 11.4432 69.544 10.6293 69.9271 9.71959C70.3102 8.80992 70.5018 7.66086 70.5018 6.27242V5.60213C70.5018 4.88397 70.1187 4.54883 69.4003 4.54883H67.0057C66.2395 4.54883 65.9042 4.88397 65.8564 5.60213V5.8894C65.8564 6.65544 65.8085 7.22997 65.7606 7.66086C65.7127 8.09176 65.569 8.52266 65.3295 8.8578C65.0901 9.24082 64.8506 9.52808 64.6112 9.71959C64.3717 9.95898 63.9407 10.2462 63.3181 10.6293L61.7377 11.6347L60.1573 10.6293C59.5347 10.2462 59.1037 9.9111 58.8643 9.71959C58.6248 9.48021 58.3854 9.19294 58.1459 8.8578C57.9064 8.47478 57.7628 8.09176 57.7149 7.66086C57.667 7.22997 57.6191 6.60756 57.6191 5.8894V5.60213C57.6191 4.88397 57.236 4.54883 56.4697 4.54883H54.0752C53.3089 4.54883 52.9737 4.88397 52.9737 5.60213V6.27242C52.9737 7.66086 53.1652 8.80992 53.5484 9.71959C53.9315 10.6293 54.6499 11.4911 55.7992 12.2092L58.3375 13.9328L56.9965 15.0819C55.4161 16.0873 54.3625 17.0927 53.7878 18.0981C53.2131 19.1036 52.9258 20.3484 52.9258 21.9762V22.9338C52.9258 23.6519 53.3089 23.9871 54.0752 23.9871H56.4697C57.236 23.9871 57.6191 23.6519 57.6191 22.9338V22.1677C57.6191 21.1623 57.7628 20.3005 58.098 19.6302C58.4332 18.9121 59.0079 18.2897 59.8221 17.763L61.7856 16.2309L63.7492 17.763C64.5633 18.2897 65.138 18.9121 65.4732 19.6302C65.8085 20.3005 65.9521 21.1623 65.9521 22.1677V22.9338C65.9521 23.6519 66.3353 23.9871 67.1015 23.9871H69.4961C70.2623 23.9871 70.5976 23.6519 70.5976 22.9338V21.9762C70.5497 20.3963 70.2623 19.1036 69.6876 18.0981Z" fill="white"/>
<path d="M90.5204 6.70285C89.1794 5.21864 87.2638 4.50048 84.7256 4.50048C84.0551 4.50048 82.9057 4.64411 82.2831 4.73987C81.9 4.83562 81.6605 5.12289 81.6605 5.50591V7.94766C81.6605 8.42643 82.0915 8.80945 82.5705 8.7137C82.762 8.66582 83.4325 8.57007 83.6241 8.57007C85.4439 8.57007 86.1144 8.80945 86.7849 9.71913C87.4553 10.6288 87.7906 11.5385 87.7906 13.5014V15.5123C87.7906 18.768 86.2102 20.3958 83.193 20.3958C80.2238 20.3958 78.6913 19.2467 78.6913 15.9432V9.95851V0.861794C78.5955 0.287265 78.2603 0 77.5898 0H75.2431C74.4769 0 74.0938 0.335142 74.0938 1.00543V16.2305C74.0938 17.3316 74.2853 18.3371 74.6684 19.2467C75.0516 20.1564 75.5784 20.9703 76.3446 21.6406C77.063 22.3588 78.0208 22.8854 79.2181 23.2684C80.4154 23.6515 81.7563 23.843 83.2888 23.843C86.306 23.843 88.6047 23.1248 90.1372 21.7364C91.7176 20.3 92.4839 18.4807 92.4839 16.2305L92.5318 16.1826V12.7354C92.5318 10.15 91.8613 8.13917 90.5204 6.70285Z" fill="#FEBB08"/>
<path d="M99.955 7.51562H97.5605C96.7942 7.51562 96.459 7.85077 96.459 8.56893V22.9322C96.459 23.6503 96.8421 23.9855 97.5605 23.9855H99.955C100.721 23.9855 101.057 23.6503 101.057 22.9322V8.56893C101.104 7.89864 100.721 7.51562 99.955 7.51562Z" fill="#DC5224"/>
<path d="M104.792 8.42543C104.792 7.75515 105.127 7.42 105.894 7.42H109.054V1.0523C109.054 0.382017 109.437 0.046875 110.156 0.046875H112.55C113.317 0.046875 113.652 0.382017 113.652 1.0523V7.37213H119.734C120.5 7.37213 120.836 7.70727 120.883 8.37755V10.1011C120.883 10.7714 120.5 11.1066 119.734 11.1544H113.652V17.8573C113.652 18.7191 113.939 19.3894 114.562 19.8681C115.184 20.299 115.903 20.5384 116.813 20.5384C117.627 20.5384 118.537 20.299 119.542 19.916C120.213 19.6288 120.74 19.7724 121.075 20.3469L121.793 21.6396C122.176 22.262 122.033 22.7408 121.314 23.0281C119.83 23.6505 118.154 23.9856 116.382 23.9856C114.131 23.9856 112.311 23.459 110.97 22.4056C109.629 21.3523 109.006 19.916 109.006 18.0967V11.1544H105.846C105.079 11.1544 104.744 10.8193 104.744 10.1011V8.42543H104.792Z" fill="#1BA4D8"/>
<path d="M101.152 2.87285L99.0445 4.97945C98.9008 5.12309 98.6135 5.12309 98.4698 4.97945L96.4105 2.87285C96.2668 2.72921 96.2668 2.44195 96.4105 2.29832L98.5177 0.191709C98.6614 0.0480763 98.9487 0.0480763 99.0924 0.191709L101.2 2.29832C101.343 2.44195 101.343 2.72921 101.152 2.87285Z" fill="#DC5224"/>
</svg>

<svg width="122" height="25" fill="none" xmlns="http://www.w3.org/2000/svg"><path d="M1.156 23.94c-.862 0-1.39-.814-1.054-1.532l2.921-7.469c.384-.957 1.677-.957 2.06-.048l3.592 8.33c.143.336-.144.72-.527.72H1.204M13.512 23.51 6.807 8.666a2.343 2.343 0 0 1 0-1.963l.575-1.197c.287-.574.862-.91 1.533-.91.67 0 1.293.384 1.532.958l7.854 17.38c.192.479-.191 1.005-.718 1.005h-3.305c-.383 0-.67-.191-.766-.43ZM23.186 23.461 16.29 8.955a2.453 2.453 0 0 1 0-2.011l.718-1.437c.287-.574.862-.91 1.533-.91.67 0 1.293.384 1.532.91l7.902 17.332c.24.527-.191 1.101-.814 1.101h-3.113c-.43 0-.718-.191-.862-.479ZM43.205 19.774c-.767.766-1.916 1.101-3.353 1.101-1.484 0-2.586-.24-3.4-.718-.814-.479-1.197-1.101-1.197-1.82v-.574c0-.814.335-1.82 1.053-2.298.67-.431 1.676-.67 3.017-.67h9.77V11.73c0-2.346-.766-3.83-2.299-5.122-1.532-1.293-3.83-1.963-6.896-1.963-2.682 0-5.172.574-7.519 1.771-.67.335-.766.766-.43 1.388l.622.958c.335.575.862.718 1.58.383 1.868-.862 3.592-1.293 5.22-1.293 1.629 0 2.874.335 3.736 1.006.862.67 1.293 1.388 1.293 2.92v.144H38.99c-2.634 0-4.693.479-6.13 1.484-1.437 1.005-2.155 2.73-2.155 4.357v.144c0 1.675.814 3.351 2.443 4.5 1.628 1.101 3.879 1.676 6.752 1.676 2.97 0 5.268-.623 6.849-1.915 1.101-.91 1.915-2.442 2.203-3.974a.578.578 0 0 0-.575-.67h-3.64a.622.622 0 0 0-.575.383c-.191.67-.383 1.292-.957 1.867ZM69.688 18.098c-.575-1.005-1.629-2.01-3.21-3.016l-1.34-1.15 2.538-1.723c1.15-.766 1.868-1.58 2.251-2.49.383-.91.575-2.058.575-3.447v-.67c0-.718-.383-1.053-1.102-1.053h-2.394c-.766 0-1.102.335-1.15 1.053v.287c0 .766-.047 1.341-.095 1.772-.048.43-.192.862-.431 1.197-.24.383-.48.67-.719.862-.24.239-.67.526-1.293.91l-1.58 1.005-1.58-1.006a12.543 12.543 0 0 1-1.294-.91 6.838 6.838 0 0 1-.718-.861 2.782 2.782 0 0 1-.431-1.197 16.335 16.335 0 0 1-.096-1.772v-.287c0-.718-.383-1.053-1.15-1.053h-2.394c-.766 0-1.101.335-1.101 1.053v.67c0 1.389.191 2.538.574 3.448.383.91 1.102 1.771 2.251 2.49l2.538 1.723-1.34 1.149c-1.58 1.005-2.635 2.01-3.21 3.016-.574 1.006-.861 2.25-.861 3.878v.958c0 .718.383 1.053 1.15 1.053h2.394c.766 0 1.15-.335 1.15-1.053v-.766c0-1.006.143-1.867.478-2.538.335-.718.91-1.34 1.724-1.867l1.964-1.532 1.963 1.532c.814.527 1.389 1.15 1.724 1.867.335.67.48 1.532.48 2.538v.766c0 .718.382 1.053 1.148 1.053h2.395c.766 0 1.102-.335 1.102-1.053v-.958c-.048-1.58-.336-2.872-.91-3.878Z" fill="#fff"/><path d="M90.52 6.703C89.18 5.219 87.264 4.5 84.726 4.5c-.67 0-1.82.144-2.443.24-.383.096-.623.383-.623.766v2.442c0 .478.431.861.91.766a7.951 7.951 0 0 1 1.054-.144c1.82 0 2.49.24 3.16 1.15.671.909 1.007 1.819 1.007 3.781v2.011c0 3.256-1.58 4.884-4.598 4.884-2.97 0-4.502-1.15-4.502-4.453V.862C78.595.287 78.261 0 77.59 0h-2.347c-.766 0-1.15.335-1.15 1.005V16.23c0 1.102.192 2.107.575 3.017.384.91.91 1.723 1.677 2.394.718.718 1.676 1.244 2.873 1.627 1.197.383 2.538.575 4.07.575 3.018 0 5.317-.718 6.85-2.107 1.58-1.436 2.346-3.255 2.346-5.506l.048-.047v-3.448c0-2.585-.67-4.596-2.012-6.032Z" fill="#FEBB08"/><path d="M99.955 7.516h-2.394c-.767 0-1.102.335-1.102 1.053v14.363c0 .718.383 1.053 1.102 1.053h2.394c.766 0 1.102-.335 1.102-1.053V8.57c.047-.67-.336-1.053-1.102-1.053Z" fill="#DC5224"/><path d="M104.792 8.425c0-.67.335-1.005 1.102-1.005h3.16V1.052c0-.67.383-1.005 1.102-1.005h2.394c.767 0 1.102.335 1.102 1.005v6.32h6.082c.766 0 1.102.335 1.149 1.006V10.1c0 .67-.383 1.006-1.149 1.053h-6.082v6.703c0 .862.287 1.532.91 2.011.622.431 1.341.67 2.251.67.814 0 1.724-.239 2.729-.622.671-.287 1.198-.144 1.533.43l.718 1.294c.383.622.24 1.1-.479 1.388-1.484.623-3.16.958-4.932.958-2.251 0-4.071-.527-5.412-1.58-1.341-1.054-1.964-2.49-1.964-4.31v-6.942h-3.16c-.767 0-1.102-.335-1.102-1.053V8.425h.048Z" fill="#1BA4D8"/><path d="m101.152 2.873-2.108 2.106a.437.437 0 0 1-.574 0l-2.06-2.106a.437.437 0 0 1 0-.575L98.519.192a.437.437 0 0 1 .574 0l2.108 2.106a.395.395 0 0 1-.048.575Z" fill="#DC5224"/></svg>
